X:1
T:[ID 1-141a]
T:[ID 1-141a]
T:Bezeichnung standardisiert: Menuett Men\"uet 24. In dieser Quelle auch als: Menuetto
T:Urheber unbekannt Erstbeleg: vor 1767 (Datum in der schriftlichen Quelle) Datum in der hier transkribierten schriftlichen Quelle: 1775
C:Urheber unbekannt
C:Erstbeleg: vor 1767 (Datum in der schriftlichen Quelle)
C:Datum in der hier transkribierten schriftlichen Quelle: 1775
L:1/8
M:3/4
K:D
V:1 treble 
V:1
 D2 D2 D2 | F3 E D2 | C2 D2 E2 | F3 E D2 | C2 D2 E2 | F2 cBcA | fdcBAB | c6 :: f2 f2 f2 | g2 gfge | %10
 e2 e2 e2 | f2 fefd | AGABcd | ecAE F2 | (3GFE D2 E2 | F6 :| %16

